src/assets/svg/game-audio-call/voice.svg

<svg width="50" height="47" viewBox="0 0 50 47" fill="none" xmlns="http://www.w3.org/2000/svg">
<g filter="url(#filter0_d_4926_402)">
<path d="M4 17.663C4 16.0061 5.34315 14.663 7 14.663H15.6667V30.8427H7C5.34315 30.8427 4 29.4996 4 27.8427V17.663Z" fill="black"/>
<path d="M29.2002 37.5201C29.2002 40.2256 25.9011 41.5488 24.0316 39.5931L15.6669 30.8427L15.6669 14.6629L23.9957 5.63895C25.8479 3.63206 29.2002 4.94262 29.2002 7.67365L29.2002 37.5201Z" fill="black"/>
<path fill-rule="evenodd" clip-rule="evenodd" d="M33.8667 29.2754C36.7584 28.8559 39.0001 25.8692 39.0001 22.2472C39.0001 18.6252 36.7584 15.6386 33.8667 15.219V29.2754Z" fill="black"/>
<path fill-rule="evenodd" clip-rule="evenodd" d="M46 22.2472C46 29.8204 40.7014 36.0651 33.8667 36.9426V34.0036C39.2481 32.5498 43.2 27.7238 43.2 21.9944C43.2 16.265 39.2481 11.439 33.8667 9.98526V7.55188C40.7014 8.42932 46 14.674 46 22.2472Z" fill="black"/>
</g>
<defs>
<filter id="filter0_d_4926_402" x="0" y="2.6676" width="50" height="43.8585" filterUnits="userSpaceOnUse" color-interpolation-filters="sRGB">
<feFlood flood-opacity="0" result="BackgroundImageFix"/>
<feColorMatrix in="SourceAlpha" type="matrix" values="0 0 0 0 0 0 0 0 0 0 0 0 0 0 0 0 0 0 127 0" result="hardAlpha"/>
<feOffset dy="2"/>
<feGaussianBlur stdDeviation="2"/>
<feComposite in2="hardAlpha" operator="out"/>
<feColorMatrix type="matrix" values="0 0 0 0 0 0 0 0 0 0 0 0 0 0 0 0 0 0 0.5 0"/>
<feBlend mode="normal" in2="BackgroundImageFix" result="effect1_dropShadow_4926_402"/>
<feBlend mode="normal" in="SourceGraphic" in2="effect1_dropShadow_4926_402" result="shape"/>
</filter>
</defs>
</svg>

<svg width="50" height="47" fill="none" xmlns="http://www.w3.org/2000/svg"><g filter="url(#a)" fill="#000"><path d="M4 17.663a3 3 0 0 1 3-3h8.667v16.18H7a3 3 0 0 1-3-3v-10.18zM29.2 37.52c0 2.706-3.299 4.029-5.168 2.073l-8.365-8.75v-16.18l8.329-9.024c1.852-2.007 5.204-.696 5.204 2.035V37.52z"/><path fill-rule="evenodd" clip-rule="evenodd" d="M33.867 29.275C36.758 28.855 39 25.87 39 22.247c0-3.622-2.242-6.608-5.133-7.028v14.056z"/><path fill-rule="evenodd" clip-rule="evenodd" d="M46 22.247c0 7.573-5.299 13.818-12.133 14.696v-2.94c5.381-1.453 9.333-6.28 9.333-12.009S39.248 11.44 33.867 9.985V7.552C40.7 8.429 46 14.674 46 22.247z"/></g><defs><filter id="a" x="0" y="2.668" width="50" height="43.858" filterUnits="userSpaceOnUse" color-interpolation-filters="sRGB"><feFlood flood-opacity="0" result="BackgroundImageFix"/><feColorMatrix in="SourceAlpha" values="0 0 0 0 0 0 0 0 0 0 0 0 0 0 0 0 0 0 127 0" result="hardAlpha"/><feOffset dy="2"/><feGaussianBlur stdDeviation="2"/><feComposite in2="hardAlpha" operator="out"/><feColorMatrix values="0 0 0 0 0 0 0 0 0 0 0 0 0 0 0 0 0 0 0.5 0"/><feBlend in2="BackgroundImageFix" result="effect1_dropShadow_4926_402"/><feBlend in="SourceGraphic" in2="effect1_dropShadow_4926_402" result="shape"/></filter></defs></svg>
